icons/Media/speaker-line.svg

<svg viewBox="0 0 24 24" xmlns="http://www.w3.org/2000/svg"><path d="M5 4V20H19V4H5ZM4 2H20C20.5523 2 21 2.44772 21 3V21C21 21.5523 20.5523 22 20 22H4C3.44772 22 3 21.5523 3 21V3C3 2.44772 3.44772 2 4 2ZM12 17C13.3807 17 14.5 15.8807 14.5 14.5C14.5 13.1193 13.3807 12 12 12C10.6193 12 9.5 13.1193 9.5 14.5C9.5 15.8807 10.6193 17 12 17ZM12 19C9.51472 19 7.5 16.9853 7.5 14.5C7.5 12.0147 9.51472 10 12 10C14.4853 10 16.5 12.0147 16.5 14.5C16.5 16.9853 14.4853 19 12 19ZM12 8.5C11.1716 8.5 10.5 7.82843 10.5 7C10.5 6.17157 11.1716 5.5 12 5.5C12.8284 5.5 13.5 6.17157 13.5 7C13.5 7.82843 12.8284 8.5 12 8.5Z"/></svg>

<svg xmlns="http://www.w3.org/2000/svg" viewBox="0 0 24 24">
    <g>
        <path fill="none" d="M0 0h24v24H0z"/>
        <path d="M5 4v16h14V4H5zM4 2h16a1 1 0 0 1 1 1v18a1 1 0 0 1-1 1H4a1 1 0 0 1-1-1V3a1 1 0 0 1 1-1zm8 15a2.5 2.5 0 1 0 0-5 2.5 2.5 0 0 0 0 5zm0 2a4.5 4.5 0 1 1 0-9 4.5 4.5 0 0 1 0 9zm0-10.5a1.5 1.5 0 1 1 0-3 1.5 1.5 0 0 1 0 3z"/>
    </g>
</svg>
